app/assets/images/idv/passport-capture-help.svg

<svg width="132" height="141" viewBox="0 0 132 141" fill="none" xmlns="http://www.w3.org/2000/svg">
<rect x="15.3867" y="72.8835" width="40.4908" height="46.9693" rx="4" fill="#D9D9D9"/>
<path d="M0 58.3066H132V140.908H0V58.3066Z" fill="#454545"/>
<path d="M124.711 125.521V135.239H114.994" stroke="white" stroke-width="3"/>
<path d="M6.4785 73.6934L6.4785 63.9756H16.1963" stroke="white" stroke-width="3"/>
<path d="M16.1963 135.239H6.4785L6.4785 125.521" stroke="white" stroke-width="3"/>
<path d="M114.994 64.7854H124.711V74.5032" stroke="white" stroke-width="3"/>
<path d="M9.9082 67.4048H121.282V128.81C121.282 130.467 119.939 131.81 118.282 131.81H12.9082C11.2513 131.81 9.9082 130.467 9.9082 128.81V67.4048Z" fill="#EBF3FA" stroke="#112E51" stroke-width="2"/>
<path d="M9.9082 4C9.9082 2.34315 11.2513 1 12.9082 1H118.282C119.939 1 121.282 2.34314 121.282 4V65.4049H9.9082V4Z" fill="url(#paint0_linear_2238_14547)" stroke="#112E51" stroke-width="2"/>
<rect x="15.3867" y="121.472" width="101.227" height="6.47853" rx="2" fill="#A1ABB7"/>
<rect x="59.1167" y="72.8835" width="57.4969" height="5.66871" rx="1" fill="#A1ABB7"/>
<rect x="59.1167" y="85.0308" width="39.681" height="4.04908" rx="1" fill="#A1ABB7"/>
<rect x="59.1167" y="93.9387" width="34.0123" height="4.04908" rx="1" fill="#A1ABB7"/>
<rect x="59.1167" y="102.847" width="18.6258" height="4.04908" rx="1" fill="#A1ABB7"/>
<rect x="59.1167" y="111.755" width="21.865" height="4.04908" rx="1" fill="#A1ABB7"/>
<rect x="15.3867" y="72.8835" width="38.0613" height="43.7301" rx="2" fill="#F2F9FF"/>
<mask id="mask0_2238_14547" style="mask-type:alpha" maskUnits="userSpaceOnUse" x="19" y="79" width="30" height="38">
<path d="M37.6934 101.398V104.136H38.2862C44.1787 104.136 48.9556 108.936 48.9556 114.858V116.198H19.3184V114.858C19.3184 108.936 24.0952 104.136 29.9878 104.136H30.5805V101.398C28.0262 100.178 26.1901 97.6864 25.8838 94.7371C25.0206 94.6145 24.3567 93.8691 24.3567 92.9679V90.8831C24.3567 89.9977 24.9975 89.2627 25.8385 89.1209V88.2027C25.8385 83.5973 29.5539 79.8638 34.137 79.8638C38.7201 79.8638 42.4354 83.5973 42.4354 88.2027V89.1209C43.2764 89.2627 43.9172 89.9977 43.9172 90.8831V92.9679C43.9172 93.8691 43.2533 94.6145 42.3902 94.7371C42.0839 97.6864 40.2478 100.178 37.6934 101.398Z" fill="white"/>
</mask>
<g mask="url(#mask0_2238_14547)">
<path d="M37.6934 101.398V104.136H38.2862C44.1787 104.136 48.9556 108.936 48.9556 114.858V116.198H19.3184V114.858C19.3184 108.936 24.0952 104.136 29.9878 104.136H30.5805V101.398C28.0262 100.178 26.1901 97.6864 25.8838 94.7371C25.0206 94.6145 24.3567 93.8691 24.3567 92.9679V90.8831C24.3567 89.9977 24.9975 89.2627 25.8385 89.1209V88.2027C25.8385 83.5973 29.5539 79.8638 34.137 79.8638C38.7201 79.8638 42.4354 83.5973 42.4354 88.2027V89.1209C43.2764 89.2627 43.9172 89.9977 43.9172 90.8831V92.9679C43.9172 93.8691 43.2533 94.6145 42.3902 94.7371C42.0839 97.6864 40.2478 100.178 37.6934 101.398Z" fill="#D0C6AC"/>
<path d="M53.6978 79.8638H14.5767V116.198H53.6978V79.8638Z" fill="#FFDBB4"/>
<path fill-rule="evenodd" clip-rule="evenodd" d="M42.4357 91.6279V95.0529C42.4357 99.6584 38.7204 103.392 34.1373 103.392C29.5542 103.392 25.8389 99.6584 25.8389 95.0529V91.6279V93.8616C25.8389 98.4671 29.5542 102.201 34.1373 102.201C38.7204 102.201 42.4357 98.4671 42.4357 93.8616V91.6279Z" fill="black" fill-opacity="0.1"/>
</g>
<mask id="mask1_2238_14547" style="mask-type:alpha" maskUnits="userSpaceOnUse" x="19" y="104" width="30" height="13">
<path fill-rule="evenodd" clip-rule="evenodd" d="M39.1694 104.18C44.6488 104.631 48.9556 109.243 48.9556 114.866V116.198H19.3184V114.866C19.3184 109.192 23.7035 104.548 29.2536 104.169C29.2491 104.225 29.2468 104.281 29.2468 104.337C29.2468 106.103 31.4694 107.536 34.2111 107.536C36.9527 107.536 39.1753 106.103 39.1753 104.337C39.1753 104.284 39.1733 104.232 39.1694 104.18Z" fill="white"/>
</mask>
<g mask="url(#mask1_2238_14547)">
<path fill-rule="evenodd" clip-rule="evenodd" d="M39.1694 104.18C44.6488 104.631 48.9556 109.243 48.9556 114.866V116.198H19.3184V114.866C19.3184 109.192 23.7035 104.548 29.2536 104.169C29.2491 104.225 29.2468 104.281 29.2468 104.337C29.2468 106.103 31.4694 107.536 34.2111 107.536C36.9527 107.536 39.1753 106.103 39.1753 104.337C39.1753 104.284 39.1733 104.232 39.1694 104.18Z" fill="#E6E6E6"/>
<path d="M53.6978 99.8179H14.5767V116.198H53.6978V99.8179Z" fill="white"/>
<g opacity="0.6">
<g opacity="0.6">
<path opacity="0.6" d="M34.2113 108.568C37.455 108.568 40.0846 106.774 40.0846 104.56C40.0846 102.347 37.455 100.552 34.2113 100.552C30.9675 100.552 28.3379 102.347 28.3379 104.56C28.3379 106.774 30.9675 108.568 34.2113 108.568Z" fill="black" fill-opacity="0.16"/>
</g>
</g>
</g>
<path d="M32.063 96.8398C32.063 97.6397 32.9755 98.18 34.1376 98.18C35.2996 98.18 36.2122 97.6397 36.2122 96.8398C36.2122 96.6753 36.0715 96.542 35.9158 96.542C35.7243 96.542 35.6388 96.6768 35.6195 96.8398C35.4353 97.2773 34.9798 97.5421 34.1376 97.5844C33.2954 97.5421 32.8398 97.2773 32.6557 96.8398C32.6364 96.6768 32.5509 96.542 32.3594 96.542C32.2037 96.542 32.063 96.6753 32.063 96.8398Z" fill="black" fill-opacity="0.6"/>
<path fill-rule="evenodd" clip-rule="evenodd" d="M32.3594 93.8616C32.3594 94.5195 33.1555 95.0529 34.1376 95.0529C35.1197 95.0529 35.9158 94.5195 35.9158 93.8616" fill="black" fill-opacity="0.16"/>
<path d="M30.2846 92.0745C30.7757 92.0745 31.1737 91.6745 31.1737 91.1811C31.1737 90.6876 30.7757 90.2876 30.2846 90.2876C29.7936 90.2876 29.3955 90.6876 29.3955 91.1811C29.3955 91.6745 29.7936 92.0745 30.2846 92.0745Z" fill="black" fill-opacity="0.6"/>
<path d="M37.9902 92.0745C38.4812 92.0745 38.8793 91.6745 38.8793 91.1811C38.8793 90.6876 38.4812 90.2876 37.9902 90.2876C37.4991 90.2876 37.1011 90.6876 37.1011 91.1811C37.1011 91.6745 37.4991 92.0745 37.9902 92.0745Z" fill="black" fill-opacity="0.6"/>
<path fill-rule="evenodd" clip-rule="evenodd" d="M29.7724 87.6294C28.9119 87.6693 27.5207 88.2977 27.5565 89.1697C27.5577 89.1982 27.5994 89.2108 27.6198 89.1888C28.0281 88.7481 30.9267 88.3028 31.9476 88.5388C32.041 88.5604 32.112 88.4678 32.0528 88.4009C31.5457 87.8279 30.5433 87.5929 29.7724 87.6294Z" fill="black" fill-opacity="0.6"/>
<path fill-rule="evenodd" clip-rule="evenodd" d="M38.65 87.6294C39.5105 87.6693 40.9017 88.2977 40.8658 89.1697C40.8646 89.1982 40.8229 89.2108 40.8025 89.1888C40.3943 88.7481 37.4957 88.3028 36.4748 88.5388C36.3813 88.5604 36.3104 88.4678 36.3695 88.4009C36.8766 87.8279 37.879 87.5929 38.65 87.6294Z" fill="black" fill-opacity="0.6"/>
<mask id="mask2_2238_14547" style="mask-type:alpha" maskUnits="userSpaceOnUse" x="14" y="74" width="40" height="43">
<path d="M53.6978 74.5032H14.5767V116.198H53.6978V74.5032Z" fill="white"/>
</mask>
<g mask="url(#mask2_2238_14547)">
<path fill-rule="evenodd" clip-rule="evenodd" d="M24.6582 85.8519C26.5754 80.9254 28.6019 78.4621 30.7376 78.4621C30.8174 78.4621 35.0725 78.4267 37.8586 78.4084C40.9193 79.802 43.0284 82.7383 43.0284 86.1351V88.3517H30.7376L30.3219 84.9L29.747 88.3517H24.6533V86.1351C24.6533 86.0403 24.655 85.9459 24.6582 85.8519L24.6582 85.8519Z" fill="black" fill-opacity="0.16"/>
<mask id="mask3_2238_14547" style="mask-type:alpha" maskUnits="userSpaceOnUse" x="20" y="77" width="28" height="27">
<path fill-rule="evenodd" clip-rule="evenodd" d="M42.4149 87.607C42.4287 87.8037 42.4357 88.0023 42.4357 88.2026V93.8612C42.4357 97.1877 40.4974 100.059 37.6938 101.398V102.694C40.3827 102.917 42.9871 103.292 44.5103 103.689C45.9852 101.67 47.9015 99.7878 47.9186 96.0949C47.9312 93.2678 43.8174 81.8632 41.9912 79.5658C40.7852 78.0487 37.739 77.548 34.1373 77.4811C30.5357 77.4142 27.6057 78.3014 26.4316 79.7147C24.8488 81.62 20.3434 93.2678 20.356 96.0949C20.3731 99.7878 22.2894 101.67 23.7643 103.689C25.2875 103.292 27.8919 102.917 30.5808 102.694V101.398C27.7772 100.059 25.8389 97.1877 25.8389 93.8612V88.2026C25.8389 88.0023 25.8459 87.8037 25.8597 87.607H30.0434L30.6183 84.4138L31.034 87.607H42.4149Z" fill="white"/>
</mask>
<g mask="url(#mask3_2238_14547)">
<path fill-rule="evenodd" clip-rule="evenodd" d="M42.4149 87.607C42.4287 87.8037 42.4357 88.0023 42.4357 88.2026V93.8612C42.4357 97.1877 40.4974 100.059 37.6938 101.398V102.694C40.3827 102.917 42.9871 103.292 44.5103 103.689C45.9852 101.67 47.9015 99.7878 47.9186 96.0949C47.9312 93.2678 43.8174 81.8632 41.9912 79.5658C40.7852 78.0487 37.739 77.548 34.1373 77.4811C30.5357 77.4142 27.6057 78.3014 26.4316 79.7147C24.8488 81.62 20.3434 93.2678 20.356 96.0949C20.3731 99.7878 22.2894 101.67 23.7643 103.689C25.2875 103.292 27.8919 102.917 30.5808 102.694V101.398C27.7772 100.059 25.8389 97.1877 25.8389 93.8612V88.2026C25.8389 88.0023 25.8459 87.8037 25.8597 87.607H30.0434L30.6183 84.4138L31.034 87.607H42.4149Z" fill="#E6E6E6"/>
<path d="M59.4771 77.3323H20.356V119.027H59.4771V77.3323Z" fill="#E2623A"/>
</g>
</g>
<defs>
<linearGradient id="paint0_linear_2238_14547" x1="65.5953" y1="0" x2="65.5953" y2="66.4049" gradientUnits="userSpaceOnUse">
<stop stop-color="#EBF3FA"/>
<stop offset="1" stop-color="#CEDCED"/>
</linearGradient>
</defs>
</svg>

<svg xmlns="http://www.w3.org/2000/svg" width="132" height="141" fill="none" viewBox="0 0 132 141"><rect width="40.491" height="46.969" x="15.387" y="72.883" fill="#D9D9D9" rx="4"/><path fill="#454545" d="M0 58.307h132v82.601H0z"/><path stroke="#fff" stroke-width="3" d="M124.711 125.521v9.718h-9.717M6.479 73.693v-9.717h9.717m0 71.263H6.478v-9.718m108.516-60.736h9.717v9.718"/><path fill="#EBF3FA" stroke="#112E51" stroke-width="2" d="M9.908 67.405h111.374v61.405a3 3 0 0 1-3 3H12.908a3 3 0 0 1-3-3z"/><path fill="url(#a)" stroke="#112E51" stroke-width="2" d="M9.908 4a3 3 0 0 1 3-3h105.374a3 3 0 0 1 3 3v61.405H9.908z"/><rect width="101.227" height="6.479" x="15.387" y="121.472" fill="#A1ABB7" rx="2"/><rect width="57.497" height="5.669" x="59.117" y="72.883" fill="#A1ABB7" rx="1"/><rect width="39.681" height="4.049" x="59.117" y="85.031" fill="#A1ABB7" rx="1"/><rect width="34.012" height="4.049" x="59.117" y="93.939" fill="#A1ABB7" rx="1"/><rect width="18.626" height="4.049" x="59.117" y="102.847" fill="#A1ABB7" rx="1"/><rect width="21.865" height="4.049" x="59.117" y="111.755" fill="#A1ABB7" rx="1"/><rect width="38.061" height="43.73" x="15.387" y="72.883" fill="#F2F9FF" rx="2"/><mask id="b" width="30" height="38" x="19" y="79" maskUnits="userSpaceOnUse" style="mask-type:alpha"><path fill="#fff" d="M37.693 101.398v2.738h.593c5.893 0 10.67 4.8 10.67 10.722v1.34H19.318v-1.34c0-5.922 4.777-10.722 10.67-10.722h.593v-2.738a8.34 8.34 0 0 1-4.697-6.66 1.784 1.784 0 0 1-1.527-1.77v-2.085c0-.885.64-1.62 1.482-1.762v-.918c0-4.606 3.715-8.34 8.298-8.34s8.298 3.734 8.298 8.34v.918a1.785 1.785 0 0 1 1.482 1.762v2.085c0 .901-.664 1.647-1.527 1.77a8.34 8.34 0 0 1-4.697 6.66"/></mask><g mask="url(#b)"><path fill="#D0C6AC" d="M37.693 101.398v2.738h.593c5.893 0 10.67 4.8 10.67 10.722v1.34H19.318v-1.34c0-5.922 4.777-10.722 10.67-10.722h.593v-2.738a8.34 8.34 0 0 1-4.697-6.66 1.784 1.784 0 0 1-1.527-1.77v-2.085c0-.885.64-1.62 1.482-1.762v-.918c0-4.606 3.715-8.34 8.298-8.34s8.298 3.734 8.298 8.34v.918a1.785 1.785 0 0 1 1.482 1.762v2.085c0 .901-.664 1.647-1.527 1.77a8.34 8.34 0 0 1-4.697 6.66"/><path fill="#FFDBB4" d="M53.698 79.864H14.577v36.334h39.12z"/><path fill="#000" fill-opacity=".1" fill-rule="evenodd" d="M42.436 91.628v3.425c0 4.605-3.716 8.339-8.299 8.339s-8.298-3.734-8.298-8.34v-3.424 2.234c0 4.605 3.715 8.339 8.298 8.339s8.299-3.734 8.299-8.34z" clip-rule="evenodd"/></g><mask id="c" width="30" height="13" x="19" y="104" maskUnits="userSpaceOnUse" style="mask-type:alpha"><path fill="#fff" fill-rule="evenodd" d="M39.17 104.18c5.479.451 9.786 5.063 9.786 10.686v1.332H19.318v-1.332c0-5.674 4.385-10.318 9.936-10.697a2 2 0 0 0-.007.168c0 1.766 2.222 3.199 4.964 3.199s4.964-1.433 4.964-3.199q0-.08-.006-.157" clip-rule="evenodd"/></mask><g mask="url(#c)"><path fill="#E6E6E6" fill-rule="evenodd" d="M39.17 104.18c5.479.451 9.786 5.063 9.786 10.686v1.332H19.318v-1.332c0-5.674 4.385-10.318 9.936-10.697a2 2 0 0 0-.007.168c0 1.766 2.222 3.199 4.964 3.199s4.964-1.433 4.964-3.199q0-.08-.006-.157" clip-rule="evenodd"/><path fill="#fff" d="M53.698 99.818H14.577v16.38h39.12z"/><path fill="#000" fill-opacity=".16" d="M34.211 108.568c3.244 0 5.874-1.794 5.874-4.008s-2.63-4.008-5.874-4.008-5.873 1.795-5.873 4.008 2.63 4.008 5.873 4.008" opacity=".6"/></g><path fill="#000" fill-opacity=".6" d="M32.063 96.84c0 .8.912 1.34 2.075 1.34 1.162 0 2.074-.54 2.074-1.34a.3.3 0 0 0-.296-.298c-.192 0-.277.135-.296.298-.185.437-.64.702-1.482.744-.843-.042-1.298-.307-1.482-.744-.02-.163-.105-.298-.297-.298a.3.3 0 0 0-.296.298"/><path fill="#000" fill-opacity=".16" fill-rule="evenodd" d="M32.36 93.862c0 .657.796 1.19 1.778 1.19s1.778-.533 1.778-1.19" clip-rule="evenodd"/><path fill="#000" fill-opacity=".6" d="M30.285 92.075c.49 0 .889-.4.889-.894a.89.89 0 0 0-.89-.893.893.893 0 0 0 .001 1.787m7.705 0c.491 0 .89-.4.89-.894a.89.89 0 0 0-.89-.893c-.49 0-.889.4-.889.893s.398.894.89.894"/><path fill="#000" fill-opacity=".6" fill-rule="evenodd" d="M29.772 87.63c-.86.04-2.251.668-2.215 1.54 0 .028.042.04.063.019.408-.44 3.307-.886 4.328-.65.093.021.164-.071.105-.138-.507-.573-1.51-.808-2.28-.772m8.877.001c.86.04 2.252.668 2.216 1.54-.001.028-.043.04-.063.019-.409-.44-3.307-.886-4.328-.65-.094.021-.165-.071-.105-.138.507-.573 1.509-.808 2.28-.772" clip-rule="evenodd"/><mask id="d" width="40" height="43" x="14" y="74" maskUnits="userSpaceOnUse" style="mask-type:alpha"><path fill="#fff" d="M53.698 74.503H14.577v41.695h39.12z"/></mask><g mask="url(#d)"><path fill="#000" fill-opacity=".16" fill-rule="evenodd" d="M24.658 85.852q2.876-7.39 6.08-7.39c.08 0 4.334-.035 7.12-.054 3.061 1.394 5.17 4.33 5.17 7.727v2.217h-12.29l-.416-3.452-.575 3.452h-5.094v-2.217q0-.143.005-.283" clip-rule="evenodd"/><mask id="e" width="28" height="27" x="20" y="77" maskUnits="userSpaceOnUse" style="mask-type:alpha"><path fill="#fff" fill-rule="evenodd" d="M42.415 87.607q.02.295.02.596v5.658a8.34 8.34 0 0 1-4.741 7.537v1.296c2.689.223 5.293.598 6.816.995 1.475-2.019 3.392-3.901 3.409-7.594.012-2.827-4.102-14.232-5.928-16.53-1.206-1.516-4.252-2.017-7.854-2.084-3.601-.067-6.531.82-7.705 2.234-1.583 1.905-6.089 13.553-6.076 16.38.017 3.693 1.933 5.575 3.408 7.594 1.524-.397 4.128-.772 6.817-.995v-1.296a8.34 8.34 0 0 1-4.742-7.537v-5.658q0-.301.02-.596h4.184l.575-3.193.416 3.193z" clip-rule="evenodd"/></mask><g mask="url(#e)"><path fill="#E6E6E6" fill-rule="evenodd" d="M42.415 87.607q.02.295.02.596v5.658a8.34 8.34 0 0 1-4.741 7.537v1.296c2.689.223 5.293.598 6.816.995 1.475-2.019 3.392-3.901 3.409-7.594.012-2.827-4.102-14.232-5.928-16.53-1.206-1.516-4.252-2.017-7.854-2.084-3.601-.067-6.531.82-7.705 2.234-1.583 1.905-6.089 13.553-6.076 16.38.017 3.693 1.933 5.575 3.408 7.594 1.524-.397 4.128-.772 6.817-.995v-1.296a8.34 8.34 0 0 1-4.742-7.537v-5.658q0-.301.02-.596h4.184l.575-3.193.416 3.193z" clip-rule="evenodd"/><path fill="#E2623A" d="M59.477 77.332H20.356v41.695h39.121z"/></g></g><defs><linearGradient id="a" x1="65.595" x2="65.595" y1="0" y2="66.405" gradientUnits="userSpaceOnUse"><stop stop-color="#EBF3FA"/><stop offset="1" stop-color="#CEDCED"/></linearGradient></defs></svg>
